img/svg/menu_rt_basket.svg

<svg width="30" height="24" viewBox="0 0 30 24" fill="none" xmlns="http://www.w3.org/2000/svg">
<path fill-rule="evenodd" clip-rule="evenodd" d="M0 2.52632H6.02929L10.3958 16H26.464L30 4.52522H9.30518L7.83865 0H0V2.52632ZM24.6267 13.4737H12.2052L10.1239 7.05154H26.6057L24.6267 13.4737ZM17.4812 21.0526C17.4812 22.6804 16.1767 24 14.5676 24C12.9585 24 11.6541 22.6804 11.6541 21.0526C11.6541 19.4248 12.9585 18.1053 14.5676 18.1053C16.1767 18.1053 17.4812 19.4248 17.4812 21.0526ZM23.7244 24C25.3335 24 26.638 22.6804 26.638 21.0526C26.638 19.4248 25.3335 18.1053 23.7244 18.1053C22.1153 18.1053 20.8109 19.4248 20.8109 21.0526C20.8109 22.6804 22.1153 24 23.7244 24Z" fill="white"/>
</svg>

<svg width="30" height="24" fill="none" xmlns="http://www.w3.org/2000/svg"><path fill-rule="evenodd" clip-rule="evenodd" d="M0 2.526h6.03L10.395 16h16.068L30 4.525H9.305L7.84 0H0v2.526zm24.627 10.948H12.205l-2.081-6.422h16.482l-1.98 6.422zm-7.146 7.579c0 1.627-1.304 2.947-2.913 2.947-1.61 0-2.914-1.32-2.914-2.947 0-1.628 1.305-2.948 2.914-2.948 1.609 0 2.913 1.32 2.913 2.948zM23.724 24c1.61 0 2.914-1.32 2.914-2.947 0-1.628-1.305-2.948-2.914-2.948-1.609 0-2.913 1.32-2.913 2.948 0 1.627 1.304 2.947 2.913 2.947z" fill="#fff"/></svg>
